X:8
T:Kelham Island
M:6/8
Q:3/8=120
R:jig
K:G
D|"G"G2G GAB|"G"G2G GAB|"Am"c2A "G"B2G|"D"A2G FED|
"G"G2G GAB|"G"G2G GAB|"A"c2A "G"B2G|"D"FEF "G"G2:|
|:B/2c/2|"G"d2B BAG|"Am"e2c cBA|"G"d2B BAG|"D"ABG FED|
"G"d2B BAG|"Am"e2c c2A|"G"d2B BAG|"D"A2F "G"G2:|
%%newpage
